assets/media/stacked-peaks.svg

<?xml version="1.0" encoding="UTF-8"?>
<svg id="visual" xmlns="http://www.w3.org/2000/svg" viewBox="0 0 960 541">
  <defs>
    <style>
      .cls-1 {
        fill: #02154e;
      }

      .cls-2 {
        fill: #013168;
      }

      .cls-3 {
        fill: #09218a;
      }

      .cls-4 {
        fill: #232e7a;
      }

      .cls-5 {
        fill: #0e76d6;
      }
    </style>
  </defs>
  <path class="cls-5" d="M0,104l87,54,88-33,87,6,87,32h87l88,5,87,6,87-38,87-32,88,21,87,22V0H0V104Z"/>
  <path class="cls-3" d="M0,185l87,10,88,17,87,5,87-11,87,33,88-6,87-11,87-37,87-38,88,43h87v-45l-87-22-88-21-87,32-87,38-87-6-88-5h-87l-87-32-87-6-88,33L0,102v83Z"/>
  <path class="cls-2" d="M0,228l87,21,88,38,87,22,87-6,87,33,88-38,87-16,87-22,87-5,88,32,87-32v-67h-87l-88-43-87,38-87,37-87,11-88,6-87-33-87,11-87-5-88-17L0,183v45Z"/>
  <path class="cls-4" d="M0,357l87,38,88-48,87,21,87,60,87,21,88-86,87,27,87-38,87,27,88-11,87,33V253l-87,32-88-32-87,5-87,22-87,16-88,38-87-33-87,6-87-22-88-38L0,226v131Z"/>
  <path class="cls-1" d="M0,541H960v-142l-87-33-88,11-87-27-87,38-87-27-88,86-87-21-87-60-87-21-88,48L0,355v186Z"/>
</svg>

<svg id="visual" viewBox="0 0 960 540" width="960" height="540" xmlns="http://www.w3.org/2000/svg" xmlns:xlink="http://www.w3.org/1999/xlink" version="1.1"><path d="M0 104L87 158L175 125L262 131L349 163L436 163L524 168L611 174L698 136L785 104L873 125L960 147L960 0L873 0L785 0L698 0L611 0L524 0L436 0L349 0L262 0L175 0L87 0L0 0Z" fill="#003223"></path><path d="M0 185L87 195L175 212L262 217L349 206L436 239L524 233L611 222L698 185L785 147L873 190L960 190L960 145L873 123L785 102L698 134L611 172L524 166L436 161L349 161L262 129L175 123L87 156L0 102Z" fill="#013b2d"></path><path d="M0 228L87 249L175 287L262 309L349 303L436 336L524 298L611 282L698 260L785 255L873 287L960 255L960 188L873 188L785 145L698 183L611 220L524 231L436 237L349 204L262 215L175 210L87 193L0 183Z" fill="#014537"></path><path d="M0 357L87 395L175 347L262 368L349 428L436 449L524 363L611 390L698 352L785 379L873 368L960 401L960 253L873 285L785 253L698 258L611 280L524 296L436 334L349 301L262 307L175 285L87 247L0 226Z" fill="#024f42"></path><path d="M0 541L87 541L175 541L262 541L349 541L436 541L524 541L611 541L698 541L785 541L873 541L960 541L960 399L873 366L785 377L698 350L611 388L524 361L436 447L349 426L262 366L175 345L87 393L0 355Z" fill="#02594e"></path></svg>
